X:79
T:Hilo, Come Down Below
M:C|
L:1/8
Q:1/4=110
K:Ab
E2|\
A2A2 A2EE|C2E2 A4|A2 c4 A2|F2F2 D3D|
E2E2 EEEE|E2E2 E4|G2 B4 c2|A3A  A2 ||
